X:1
T:REZITATIV UND ARIE
T:REZITATIV UND ARIE
T:Ich habe genug
T:J. S. Bach
T:from BWV 82
C:J. S. Bach
%%score 1 { { ( 2 3 5 ) | ( 4 6 ) } ( 7 8 ) }
L:1/8
Q:1/4=56
M:4/4
K:G
V:1 treble nm="Sopran"
V:2 treble nm="Cembalo"
V:3 treble 
V:5 treble 
V:4 bass 
V:6 bass 
V:7 treble nm="Cembalo" snm="Cbl."
V:8 treble 
V:1
"^Recitativo" z G c d/ e/ A2 z c | =f d B d G2 z d | g d =f e e c A/ A/ B/ c/ | %3
w: Ich ha- be ge- nug! Mein|Trost ist nur al- lein, dass|Je- sus mein und ich sein ei- gen möch- te|
 (!fermata!cB) z G d d d e | !fermata!=f z/ B/ B c d B ^G B | %5
w: sein. _ Im Glau- ben halt ich|ihn, da seh ich auch mit Si- me-|
 !fermata!E z/ E/ ^G B e B !fermata!d c | c2 z A B c d e | =f A (A!fermata!E) z2 z ^c | %8
w: on die Freu- de je- nes Le- bens|schon. Lasst uns mit die- sem|Man- ne ziehn. _ Ach!|
 e e e ^c ^A B c F | G G z/ E/ e/ ^c/ d d z f | z B/ ^c/ d B F A !fermata!=c z/ A/ | %11
w: möch- te mich von mei- nes Lei- bes|Ket- ten der Herr er- ret- ten! Ach!|wä- re doch mein Ab- schied hier, mit|
 (B/d/g/f/ e/d/) ^c/B/ c A d D | %12
w: Freu- * * * * * den _ sagt ich, Welt, zu|
[Q:1/4=48] !fermata!B[Q:1/4=47]"^.9" z/[Q:1/4=47]"^.8" d/[Q:1/4=47]"^.5" F[Q:1/4=46]"^.6" G/[Q:1/4=46] E/[Q:1/4=45]"^.2" D2[Q:1/4=40]"^.2" z2[Q:1/4=44]"^.2"[Q:1/4=43]"^.1"[Q:1/4=41]"^.7"[Q:1/4=36]"^.5"[Q:1/4=34]"^.4" | %13
w: dir: Ich ha- be ge- nug!|
[Q:1/4=32] z8 ||[M:4/4][Q:1/4=60]"^Aria" (B c2) B/A/ G2 z G | (=f e2) d (e d2) c/B/ | %16
w: |Schlum- * mert _ ein, ihr|mat- * ten Au- * gen, _|
 cg ^fe dc BA | GFG c{B} A2 D2- | D2 D2 D2 G2- | G2 G2 G2 z2 | (D c2) B/A/ G2 z G | %21
w: fal- * let _ sanft _ und _|se- * * lig zu, schlum-|* mert ein, schlum-|mert ein, *|schlum- * mert _ ein, ihr|
 (=f e2) d (e d2) c/B/ | cg ^fe dc BA | %23
w: mat- * ten Au- * gen, _|fal- * let _ sanft _ und _|
 G[Q:1/4=59]"^.5"F[Q:1/4=57]"^.3"G[Q:1/4=52]"^.7" c[Q:1/4=60]{!fermata!B} !fermata!A2 z2 | D8- | %25
w: se- * * lig zu.|Schlum-|
 D/E/ =F2 E E2 z A | ^G=f ed cB c2- | c =GF E DF Ac | BA FG G4- | %29
w: * * * mert ein, ihr|mat- * ten _ Au- * gen,|_ fal- * let sanft _ und _|se- * lig _ zu,|
[Q:1/4=59]"^.8" G4-[Q:1/4=50]"^.5" G[Q:1/4=60]!fermata!=F z2[Q:1/4=59][Q:1/4=57]"^.3"[Q:1/4=54]"^.6" | %30
w: _ _ _|
 e/d/c- c/B/A- A G/F/ ED- | D c/B/ e/d/ c/B/{A} G2 z2 | B3 ^c (d A2) B | G ^c/d/e (G2 F) z2 | %34
w: fal- * * * * * * let _ sanft _|_ und _ se- * lig _ zu.|Welt, ich blei- * be|nicht mehr _ _ hier, _|
 f3 B (^A/^c/e) z d | ^c^A Bc F2 z2 | z d/^c/d g ge{d} c2 | z ^c/B/c f fd{c} B2 | %38
w: hab ich doch _ _ kein|Teil _ an _ dir,|das _ _ der See- * len|könn- * * te tau- * gen,|
 z e/d/e ^c ^A c f e | (d2 ^c2) B2 f B | ^A B e d (GF) B/^c/ d/e/ | f =A B =c E^D A2- | %42
w: das _ _ der See- len könn- te|tau- * gen, Welt, ich|blei- be nicht mehr hier, _ hab _ ich _|doch kein Teil an dir, _ das|
 A ^G ^A B ^Fe d^c | (B2 T^A>B) B2 z2 | (B =c2) B/A/ G4- | G6 z2 | z8 | z4 z2 D2- | D2 D2 D2 G2- | %49
w: _ der See- len könn- * te _|tau- * * gen.|Schlum- * mert _ ein,|_||schlum-|* mert ein, schlum-|
 G2 G2 G2 z2 | (D c2) B/A/ G2 z G | (=f e2) d (e d2) c/B/ | cg ^fe dc BA | %53
w: mert ein, *|schlum- * mert _ ein, ihr|mat- * ten Au- * gen, _|fal- * let _ sanft _ und _|
 G[Q:1/4=59]"^.5"F[Q:1/4=57]"^.3"G[Q:1/4=52]"^.7" c[Q:1/4=60]{!fermata!B} !fermata!A2 z2 | D8- | %55
w: se- * * lig zu,|schlum-|
 D/E/ =F2 E E2 z A | ^G=f ed cB c2- | c =GF E DF Ac | BA FG G4- | %59
w: * * * mert ein, ihr|mat- * ten _ Au- * gen,|_ fal- * let sanft _ und _|se- * lig _ zu,|
[Q:1/4=59]"^.8" G4-[Q:1/4=50]"^.5" G[Q:1/4=60]!fermata!=F z2[Q:1/4=59][Q:1/4=57]"^.3"[Q:1/4=54]"^.6" | %60
w: _ _ _|
 e/d/c- c/B/A- A G/F/ ED- | D c/B/ e/d/ c/B/{A} G2 z2 | z8 | B3 c A3 A | f^d =cB AF G2 | %65
w: fal- * * * * * * let _ sanft _|_ und _ se- * lig _ zu.||Hier muss ich das|E- * lend _ bau- * en,|
 z G/A/B d =fe z e | (A B2) c (c B2) c | (d/e/ =f2) e/d/ (c/B/ d2) c | B/d/c- c/ B/A/^G/ A4- | %69
w: a- * * ber dort, _ dort|werd _ ich schau- * en|sü- * * ßen _ Frie- * * den,|stil- * * * le _ _ Ruh,|
 A8- | A2 z2 z4 | z8 | c3 A =F3 E | (=Fd) (BG) (FE) E2 | z E/^F/^G B (dc) z B | %75
w: _|||hier muss ich das|E- * lend _ bau- * en,|a- * * ber dort, _ dort|
 Ag fe (^d/e/f) B A- | A/G/F- F/G/ E c/B/A- A/^d/ e | E>A F>E E4- | E8- | E cB A (GB) (d=f) | %80
w: werd _ ich _ schau- * * en sü-|* * * * * ßen Frie- * * * * den,|stil- * le _ Ruh,|_|* sü- * ßen Frie- * den, _|
 (e[Q:1/4=59]"^.5"d)[Q:1/4=57]"^.3" (B[Q:1/4=52]"^.7"c)"^(      )"[Q:1/4=60] !fermata!c4 | %81
w: stil- * le _ Ruh.|
 (B c2) B/A/ G2 z G | (=f e2) d (e d2) c/B/ | cg ^fe dc BA | GFG c{B} A2 D2- | D2 D2 D2 G2- | %86
w: Schlum- * mert _ ein, ihr|mat- * ten Au- * gen, _|fal- * let _ sanft _ und _|se- * * lig zu, schlum-|* mert ein, schlum-|
 G2 G2 G2 z2 | (D c2) B/A/ G2 z G | (=f e2) d (e d2) c/B/ | cg ^fe dc BA | %90
w: mert ein, *|schlum- * mert _ ein, ihr|mat- * ten Au- * gen, _|fal- * let _ sanft _ und _|
 G[Q:1/4=59]"^.5"F[Q:1/4=57]"^.3"G[Q:1/4=52]"^.7" c[Q:1/4=60]{!fermata!B} !fermata!A2 z2 | D8- | %92
w: se- * * lig zu.|Schlum-|
 D/E/ =F2 E E2 z A | ^G=f ed cB c2- | c =GF E DF Ac | BA FG G4- | %96
w: * * * mert ein, ihr|mat- * ten _ Au- * gen,|_ fal- * let sanft _ und _|se- * lig _ zu,|
[Q:1/4=59]"^.8" G4-[Q:1/4=50]"^.5" G[Q:1/4=60]!fermata!=F z2[Q:1/4=59][Q:1/4=57]"^.3"[Q:1/4=54]"^.6" | %97
w: _ _ _|
 e/d/c- c/B/A- A G/F/ E[Q:1/4=59]"^.8"D- | %98
w: fal- * * * * * * let _ sanft _|
[Q:1/4=59] D[Q:1/4=57]"^.3" c/[Q:1/4=56]"^.1"B/[Q:1/4=54]"^.6" e/[Q:1/4=52]"^.7"d/[Q:1/4=50]"^.5" c/[Q:1/4=47]"^.9"B/{A} G2 !fermata!z2 |] %99
w: _ und _ se- * lig _ zu.|
V:2
 G4 A4 | d4 d4- | d4 c2 A2 | [FA] [GB]3- B4 | [D=FB]8 | [DEB]8 | A2 ^GA Bcde | B2 [EB]2 A2 ^c2- | %8
 c4 ^A4 | ^c4 B4- | B4 F4 | [B,G]4 A2 A2 | G2 z G FB F[^CE] | !fermata![F,A,D]8 || %14
[M:4/4] G2 F2 G4 | G4 G3 G | E2 A2 A2 GF | G2 GA{G} F2 z2 | (A c2) B/A/ Bedc | %19
 (d =f2) e/d/ eg ^fg | [cd]4 B3 c | (([=Fd] [Ec]2)) [DB] (([Ec] [DB]2)) d | c4 A2 GF | %23
 G B2 A{!fermata!G} !fermata!F2 z2 | (A c2) B/A/ B2 z2 | (D =F2) E/D/ E2 z A | dc B^G A=GFE | %27
 [DA]4 A2 F2 | G2 F2 G=F z F | =FE z E E!fermata!D z2 | G2 A2 [DA]4 | G2 [EG][DF] G2 z2 | %32
 D3 G A F2 F | G3 A A2 z2 | A3 d ^A3 B | G^A B2 ^A4 | B2 B2 !courtesy!=A4 | A2 ^c2 B4 | %38
 B2 G2 F^A B2- | B2 ^A2 B2 F[EG] | F2 ED =C2 F^A | [=AB]2 [FA]G A2 B2 | B2 =G2 F2 [DF][^CG] | %43
 [!courtesy!^CF]4 FB =c2 | B A2 d G3 G | ([d=f] [ce]2) [Bd] ([ce] [Bd]2) c/B/ | cg^fe de[Bd][Ac] | %47
 B3 c{B} A2 z2 | (A c2) B/A/ BG=FE | (D =F2) E/D/ EG^FG | A3 G/F/ G B2 c | %51
 ([=Fd] [Ec]2) [DB] ([Ec] [DB]2) d | c4 A2 GF | G B2 A{!fermata!G} !fermata!F2 z2 | %54
 (A c2) B/A/ B2 z2 | (D =F2) E/D/ E2 z A | dc B^G A=GFE | [DA]4 A2 F2 | G2 F2 G=F z F | %59
 =FE z E E!fermata!D z2 | G2 A2 [DA]4 | G2- [EG][DF] D/E/ =F2 E/D/ | %62
 EG/=F/ E/D/C/B,/ ^F/G/A- AG/F/ | G4 A4 | A3 B B4 | G3 G G c2 c | AG=FE D G2 A | B4 A2 A2 | %68
 A3 B ^c/d/ e2 d/c/ | d4 B/c/ d2 c/B/ | c c3- c=f/e/ d/c/B/A/ | ^G A2 d cB ^GA | A2 e2 edBc | %73
 [=Fd]4 [Fd][Ec] ^GA | B2 B2 [^GB]A A=G | ^FG A[Fc] B[B^d]ef | Be e2 [ce]2 AG | %77
 G[Fc] FB B/c/ d2 c/B/ | c4 F/G/ A2 G/F/ | G4 G4 | G=FFE E4 | G2 ^F2 G4 | G4 G3 G | %83
 E2 A2 [DA]2 GF | G2 GA{G} F2 z2 | (A c2) B/A/ Bedc | (d =f2) e/d/ eg ^fg | [cd]4 B3 c | %88
 (([=Fd] [Ec]2)) [DB] (([Ec] [DB]2)) d | c4 A2 GF | G B2 A{!fermata!G} !fermata!F2 z2 | %91
 (A c2) B/A/ B2 z2 | (D =F2) E/D/ E2 z A | dc B^G A=GFE | [DA]4 A2 F2 | G2 F2 G=F z F | %96
 =FE z E E!fermata!D z2 | G2 A2 [DA]4 | G2 [EG][DF] G2 z2 |] %99
V:3
 [CE]4 [C=F]4 | [=FA]4 [FG]4- | [FG]4 [EG]2 [D^F]2 | D4- [DG]4 | x8 | x8 | [CE]2 DE =F^GA[EA] | %7
 [=FA]2 A^G [CE]2 [EA]2- | [EA]4 [^CE]4 | [EG]4 [DF]4- | [DF]4 =C4 | D2 E2 [^CE]2 D2 | %12
 [B,D]2 x ^C D[DG] D[A,C]/!fermata!G,/ | x8 ||[M:4/4] D3 C B,3 [CE] | %15
 [D=F] [CE]2 [B,D] [CE] [B,D]2 B, | C2 C2 C2 B,A, | G,2 CE D2 x2 | (F A2) G/F/ GcBA | %19
 (B d2) c/B/ c2- cB | A3 G/F/ G3 [EG] | G4 G3 [G-B] | [EG]2 ^FG D3 C | B,FGE D2 x2 | %24
 (F A2) G/F/ G2 x2 | (B, D2) C/B,/ C2 x E | ^GA E2 C4 | C4 [CD]4 | [B,D][CE] [A,D]2 [B,D]2 x D | %29
 DC x C CB, x2 | E2 [CE]2 C4 | DE A,2 [B,D]2 x2 | B,3 E D3 D- | D^CD[EG] GF x2 | F3 F E3 D | %35
 E2 DG [^CF]4 | [DF]2 [DG]2 [^CE]4 | [^CF]2 [FA]2 [DF]4 | E2 [B,E]2 [^A,^C][CF] FE | %39
 [DF]2 [^CF]2 [DF]2 B,2 | [^A,^C]B, B,2 B,A, B,E | ^DE B,E- ED [FA]2 | A^G ED [^CE]2 B,2 | %43
 B,2 ^A,2 DF [GB][DA] | [DG] F3 E3 E | G3 G G3 G | G2 c2- cc F2 | GFG A{G} F2 x2 | %48
 (F A2) G/F/ GEDC | (B, D2) C/B,/ C3 B, | [CD]3 D B, G2 [EG] | G4 G3 [G-B] | G2 ^FG D3 C | %53
 B,FGE D2 x2 | (F A2) G/F/ G2 x2 | (B, D2) C/B,/ C2 x E | ^GA E2 C4 | C4 [CD]4 | %58
 [B,D][CE] [A,D]2 [B,D]2 x D | DC x C CB, x2 | E2 [CE]2 C4 | DE- A,2 B,/C/ D2 C/B,/ | %62
 C2 x2 A,/B,/C- CB,/A,/ | B,2 D2 [CE]4 | [CF]3 [FA] AG- G2 | D3 [D=F] FEFG | x3 C- CB,D[CE] | %67
 [D=F]3 E [CE]2 DC | =F^F E2- A4 | [=FA]4 ^G/A/ B2 A/G/ | Ac/B/ A/G/=F/E/ F3 [DF] | %71
 [B,E] [CE]2 [DA] [EA]=F E2 | [CE]2 [Ac]E [=FA]2 z A | A2 G2 G2 DC | [B,E]2 [D^G]2 DC E2 | %75
 [CE]^D E2 [^DF]F[GB][A^d] | AG[FA][GB] AE^DE | E2 E^D ^G/A/ B2 A/G/ | A4 ^D/E/ F2 E/D/ | %79
 E4 D [D=F]3 | [CE][A,D][B,D][G,C] [G,C]4 | D3 C B,3 [CE] | [D=F] [CE]2 [B,D] [CE] [B,D]2 B, | %83
 C2 C2 C2 B,A, | G,2 CE D2 x2 | (F A2) G/F/ GcBA | (B d2) c/B/ c2- cB | A3 G/F/ G3 [EG] | %88
 G4 G3 [G-B] | [EG]2 ^FG D3 C | B,FGE D2 x2 | (F A2) G/F/ G2 x2 | (B, D2) C/B,/ C2 x E | %93
 ^GA E2 C4 | C4 [CD]4 | [B,D][CE] [A,D]2 [B,D]2 x D | DC x C CB, x2 | E2 [CE]2 C4 | %98
 DE A,2 [B,D]2 x2 |] %99
V:4
!p! C,8- | C,4 B,,4- | B,,4 C,4 | G,,8 | ^G,,8- | G,,8 | A,,A,B,C DE=FC | DB,EE, A,2 G,2- | G,8 | %9
 ^A,,4 B,,4- | B,,4 =A,,4 | G,,6 F,,2 | G,,2 z A,, B,,/B,/A,/G,/ A,A,, | !fermata!D,8 || %14
[M:4/4] G,,G,,D,D, E,,E,D,C, | B,,G,,G,,G,, C,G,,G,,G,, | A,B,A,G, F,D,D,D, | E,D,E,C, D,DA,F, | %18
 D,D,D,D, G,G,,B,,D, | G,G,,G,,G,, C,B,A,G, | F,D,D,D, E,EDC | B,G,G,G, CG,G,G, | %22
 A,B,A,G, F,D,D,D, | E,D,E,C, !fermata!D,2 z2 | D,D,D,D, G,,G,D,B,, | G,,G,,G,,G,, C,E,D,C, | %26
 B,,A,,^G,,E,, A,,E,A,=G, | F,E,D,E, F,D,D,D, | G,C,D,D, G,,G,D,B,, | G,,G,E,C, !fermata!G,,2 z2 | %30
 CB,A,G, ^F,E,F,D, | B,,E,C,D, G,G,,B,,D, | G,,G,F,E, F,D,^C,B,, | E,A,,B,,^C, D,DA,F, | %34
 D,F,E,D, ^C,^CF,B, | E,F,G,E, F,E,D,!courtesy!^C, | B,,B,G,E, A,,A,E,^C, | A,,A,F,D, G,,G,D,B,, | %38
 G,,G,^C,E, F,E,D,G, | F,E,F,F,, B,,^C,D,E,- | E,D,G,,F,, E,,E,D,^C, | %41
 B,,^C,!courtesy!^D,E, F,B,D,B,, | E,=D,^C,B,, ^A,,F,,B,,E, | F,E,F,F,, B,,D,E,F, | %44
 G,D,D,D, E,EDC | B,G,G,G, CG,G,G, | A,B,A,G, F,D,D,D, | E,D,E,C, D,DA,F, | D,D,D,D, G,G,,B,,D, | %49
 G,G,,G,,G,, C,B,A,G, | F,D,D,D, E,EDC | B,G,G,G, CG,G,G, | A,B,A,G, F,D,D,D, | %53
 E,D,E,C, !fermata!D,2 z2 | D,D,D,D, G,,G,D,B,, | G,,G,,G,,G,, C,E,D,C, | %56
 B,,A,,^G,,E,, A,,E,A,=G, | F,E,D,E, F,D,D,D, | G,C,D,D, G,,G,D,B,, | G,,G,E,C, !fermata!G,,2 z2 | %60
 CB,A,G, ^F,E,F,D, | B,,E,C,D, G,G,,B,,D, | G,G,,C,E, G,G,,G,,G,, | G,,G,,G,,G,, G,,G,F,E, | %64
 ^D,D,D,D, E,E=DC | B,B,B,B, CC,D,E, | =F,E,D,C, G,D,B,,A,, | ^G,,G,,G,,G,, A,,=G,=F,E, | %68
 D,^D,E,E,, z A,^CA, | z A,=F,D, z ^G,B,E | z ECA, D,D,D,D, | D,C,=F,F, E,D,E,E, | %72
 A,A,,A,,A,, D,A,DC | B,B,,B,,B,, C,CB,A, | ^G,E,E,E, A,E,C,E, | A,B,CA, B,A,G,F, | %76
 E,D,C,B,, A,,G,,F,,E,, | C,A,,B,,B,, z ^G,B,E | z E,C,A,, z2 ^DB, | z E,D,C, B,,G,,G,,G,, | %80
 C,=F, G,G,,"_(      )" !fermata!C,4 | G,,G,,D,D, E,,E,D,C, | B,,G,,G,,G,, C,G,,G,,G,, | %83
 A,B,A,G, F,D,D,D, | E,D,E,C, D,DA,F, | D,D,D,D, G,G,,B,,D, | G,G,,G,,G,, C,B,A,G, | %87
 F,D,D,D, E,EDC | B,G,G,G, CG,G,G, | A,B,A,G, F,D,D,D, | E,D,E,C, !fermata!D,2 z2 | %91
 D,D,D,D, G,,G,D,B,, | G,,G,,G,,G,, C,E,D,C, | B,,A,,^G,,E,, A,,E,A,=G, | F,E,D,E, F,D,D,D, | %95
 G,C,D,D, G,,G,D,B,, | G,,G,E,C, !fermata!G,,2 z2 | CB,A,G, ^F,E,F,D, | B,,E,C,D, !fermata!G,4 |] %99
V:5
 x8 | x8 | x8 | x8 | x8 | x8 | x8 | x8 | x8 | x8 | x8 | x8 | x8 | x8 ||[M:4/4] B, x7 | x8 | %16
 x4 D2 x2 | x8 | x8 | x8 | x8 | x8 | x8 | x8 | x8 | x8 | x8 | x8 | x8 | x8 | x8 | x8 | x8 | %33
 x4 D2 x2 | x8 | x8 | x8 | x8 | x8 | x8 | x8 | x8 | E2 x6 | x8 | x8 | x8 | x4 A2 x2 | x8 | x8 | %49
 x8 | x8 | x8 | x8 | x8 | x8 | x8 | x8 | x8 | x8 | x8 | x8 | x8 | x8 | x8 | x8 | x8 | x8 | x8 | %68
 x4 E/=F/ G2 F/E/ | x8 | x8 | x6 B,C | x8 | x8 | x8 | x8 | x8 | x8 | x8 | x8 | x8 | B, x7 | x8 | %83
 x8 | x8 | x8 | x8 | x8 | x8 | x8 | x8 | x8 | x8 | x8 | x8 | x8 | x8 | x8 | x8 |] %99
V:6
 x8 | x8 | x8 | x8 | x8 | x8 | x8 | x8 | x8 | x8 | x8 | x8 | x8 | x8 ||[M:4/4] x8 | x8 | x8 | x8 | %18
 x8 | x8 | x8 | x8 | x8 | x8 | x8 | x8 | x8 | x8 | x8 | x8 | x8 | x8 | x8 | x8 | x8 | x8 | x8 | %37
 x8 | x8 | x8 | x8 | x8 | x8 | x8 | x8 | x8 | x8 | x8 | x8 | x8 | x8 | x8 | x8 | x8 | x8 | x8 | %56
 x8 | x8 | x8 | x8 | x8 | x8 | x8 | x8 | x8 | x8 | x8 | x8 | x4 A,,2 z2 | x4 A,,2 z2 | x8 | x8 | %72
 x8 | x8 | x8 | x8 | x8 | x4 E,,2 z2 | x4 E,,2 z2 | x8 | x8 | x8 | x8 | x8 | x8 | x8 | x8 | x8 | %88
 x8 | x8 | x8 | x8 | x8 | x8 | x8 | x8 | x8 | x8 | x8 |] %99
V:7
!pp! !arpeggio![CEG]4 !arpeggio![C=FA]4 | !arpeggio![=FAd]4 !arpeggio![FGd]4- | %2
 [FGd]4 !arpeggio![EGc]2 !arpeggio![D^FA]2 | !arpeggio![D-FA] [DGB]3- [DGB]4 | !arpeggio![D=FB]8 | %5
 !arpeggio![DEB]8 | !arpeggio![CEA]2 [D^G] [EA] [=FB] [Gc] [Ad] !arpeggio![EAe] | %7
 !arpeggio![=FAB]2 !arpeggio![E-AB-] [EB] !arpeggio![CEA]2 !arpeggio![EA^c]2- | %8
 [EAc]4 !arpeggio![^CE^A]4 | !arpeggio![EG^c]4 !arpeggio![DFB]4- | [DFB]4 !arpeggio![=CF]4 | %11
 !arpeggio![B,-DG-]2 [B,EG]2 !arpeggio![^CEA]2 !arpeggio![DA]2 | %12
 !arpeggio![B,DG]2 z [^CG] [DF] [DGB] [DF] !arpeggio![CE] | !arpeggio!!fermata![F,A,D]8 || %14
[M:4/4] z8 | z8 | z8 | z8 | z8 | z8 | z8 | z8 | z8 | z8 | z8 | z8 | z8 | z8 | z8 | z8 | z8 | z8 | %32
 z8 | z8 | z8 | z8 | z8 | z8 | z8 | z8 | z8 | z8 | z8 | z8 | z8 | z8 | z8 | z8 | z8 | z8 | z8 | %51
 z8 | z8 | z8 | z8 | z8 | z8 | z8 | z8 | z8 | z8 | z8 | z8 | z8 | z8 | z8 | z8 | z8 | z8 | z8 | %70
 z8 | z8 | z8 | z8 | z8 | z8 | z8 | z8 | z8 | z8 | z8 | z8 | z8 | z8 | z8 | z8 | z8 | z8 | z8 | %89
 z8 | z8 | z8 | z8 | z8 | z8 | z8 | z8 | z8 | z8 |] %99
V:8
 x8 | x8 | x8 | x8 | x8 | x8 | x8 | x3 ^G x4 | x8 | x8 | x8 | x8 | x7 !arpeggio!A,/ !fermata!G,/ | %13
 x8 ||[M:4/4] x8 | x8 | x8 | x8 | x8 | x8 | x8 | x8 | x8 | x8 | x8 | x8 | x8 | x8 | x8 | x8 | x8 | %31
 x8 | x8 | x8 | x8 | x8 | x8 | x8 | x8 | x8 | x8 | x8 | x8 | x8 | x8 | x8 | x8 | x8 | x8 | x8 | %50
 x8 | x8 | x8 | x8 | x8 | x8 | x8 | x8 | x8 | x8 | x8 | x8 | x8 | x8 | x8 | x8 | x8 | x8 | x8 | %69
 x8 | x8 | x8 | x8 | x8 | x8 | x8 | x8 | x8 | x8 | x8 | x8 | x8 | x8 | x8 | x8 | x8 | x8 | x8 | %88
 x8 | x8 | x8 | x8 | x8 | x8 | x8 | x8 | x8 | x8 | x8 |] %99

